www/assets/icons/near_me_disabled.svg

<svg width="24" height="24" viewBox="0 0 24 24" xmlns="http://www.w3.org/2000/svg" fill='currentColor'><path d="M11.29 7.0501L20.29 3.7101L16.95 12.7101L11.29 7.0501ZM21.9 20.4901L3.51001 2.1001L2.10001 3.5201L7.17001 8.5901L2.29001 10.4001V11.8101L9.36001 14.6401L12.19 21.7101H13.6L15.41 16.8301L20.48 21.9001L21.9 20.4901Z"/></svg>

<svg xmlns="http://www.w3.org/2000/svg" width="24" height="24" viewBox="0 0 24 24" fill='currentColor'><path d="m11.29 7.05 9-3.34-3.34 9zM21.9 20.49 3.51 2.1 2.1 3.52l5.07 5.07-4.88 1.81v1.41l7.07 2.83 2.83 7.07h1.41l1.81-4.88 5.07 5.07z"/></svg>
